symbols/web/dns/materialsymbolsoutlined/dns_wght600_24px.svg

<svg xmlns="http://www.w3.org/2000/svg" height="24" width="24"><path d="M7.5 5.425q-.625 0-1.062.438Q6 6.3 6 6.925t.438 1.062q.437.438 1.062.438t1.062-.438Q9 7.55 9 6.925t-.438-1.062q-.437-.438-1.062-.438Zm0 10.975q-.625 0-1.062.437Q6 17.275 6 17.9t.438 1.062q.437.438 1.062.438t1.062-.438Q9 18.525 9 17.9t-.438-1.063Q8.125 16.4 7.5 16.4ZM3.85 1.95h16.3q.575 0 .95.4t.375.95v7.2q0 .6-.375 1.012-.375.413-.95.413H3.85q-.575 0-.95-.413-.375-.412-.375-1.012V3.3q0-.55.375-.95.375-.4.95-.4ZM5.175 4.6v4.675h13.65V4.6ZM3.85 12.925h16.3q.575 0 .95.4t.375 1v7.2q0 .575-.375.95t-.95.375H3.85q-.575 0-.95-.375t-.375-.95v-7.2q0-.6.375-1t.95-.4Zm1.325 2.65V20.2h13.65v-4.625Zm0-10.975v4.675Zm0 10.975V20.2Z"/></svg>

<svg xmlns="http://www.w3.org/2000/svg" height="24" width="24"><path d="M7.5 5.425Q6.875 5.425 6.438 5.863Q6 6.3 6 6.925Q6 7.55 6.438 7.987Q6.875 8.425 7.5 8.425Q8.125 8.425 8.562 7.987Q9 7.55 9 6.925Q9 6.3 8.562 5.863Q8.125 5.425 7.5 5.425ZM7.5 16.4Q6.875 16.4 6.438 16.837Q6 17.275 6 17.9Q6 18.525 6.438 18.962Q6.875 19.4 7.5 19.4Q8.125 19.4 8.562 18.962Q9 18.525 9 17.9Q9 17.275 8.562 16.837Q8.125 16.4 7.5 16.4ZM3.85 1.95H20.15Q20.725 1.95 21.1 2.35Q21.475 2.75 21.475 3.3V10.5Q21.475 11.1 21.1 11.512Q20.725 11.925 20.15 11.925H3.85Q3.275 11.925 2.9 11.512Q2.525 11.1 2.525 10.5V3.3Q2.525 2.75 2.9 2.35Q3.275 1.95 3.85 1.95ZM5.175 4.6V9.275H18.825V4.6ZM3.85 12.925H20.15Q20.725 12.925 21.1 13.325Q21.475 13.725 21.475 14.325V21.525Q21.475 22.1 21.1 22.475Q20.725 22.85 20.15 22.85H3.85Q3.275 22.85 2.9 22.475Q2.525 22.1 2.525 21.525V14.325Q2.525 13.725 2.9 13.325Q3.275 12.925 3.85 12.925ZM5.175 15.575V20.2H18.825V15.575ZM5.175 4.6V9.275ZM5.175 15.575V20.2Z"/></svg>
